!!!COM: Music21
!!!OTL: Marcha dos Gaiteiros
!!!OMV: pezas_marchas_marcha-dos-gaiteiros_marcha-dos-gaiteiros-partitura.musicxml
**kern
*part1
*staff1
*I"Bagpipes
*I'Bag
*clefG^2
*k[]
*M2/4
=1
!LO:TX:a:t=Andante
*MM96
!LO:TX:a:t=[quarter]=96
4.r
8gg
=||
8.ccL
16ccJk
8eeL
16ccL
16eeJJ
=
4gg
8r
8gg
=
8aaL
16ggL
16aaJJ
8bbL
16aaL
16bbJJ
=
8cccL
8ggJ
8eeL
8ggJ
=||
8ccL
8eeJ
8ddL
8ccJ
=||
4gg
[4gg
=
8gg]
24eeLL
24ff
24eeJJ
8ddL
8ccJ
!!linebreak:original
=
4b
[4b
!!linebreak:original
=
8b]
24eeLL
24ff
24eeJJ
8ddL
8ccJ
=
4aa
[4aa
=
8aa]
24ffLL
24gg
24ffJJ
8eeL
8ddJ
=
4gg
[4gg
=
8ggL]
8eeJ
8ddL
8ccJ
=
4gg
[4gg
=
8ggL]
8eeJ
8ffL
8ggJ
=
8aaL
8ffJ
[4aa
=
8aaL]
8aaJ
8bbL
8cccJ
=
4ccc
8.eeL
16aaJk
!!linebreak:original
=
4gg
8.ddL
16eeJk
!!linebreak:original
=
[2cc
=
8ccL]
8eeJ
8ddL
8ccJ
=||
4gg
[4gg
=
8gg]
24eeLL
24ff
24eeJJ
8ddL
8ccJ
=
4b
[4b
!!linebreak:original
=
8b]
24eeLL
24ff
24eeJJ
8ddL
8ccJ
=
4aa
[4aa
=
8aa]
24ffLL
24gg
24ffJJ
8eeL
8ddJ
=
4gg
[4gg
=
8ggL]
8eeJ
8ddL
8ccJ
=
4gg
[4gg
=
8ggL]
8eeJ
8ffL
8ggJ
=
8aaL
8ffJ
[4aa
=
8aaL]
8aaJ
8bbL
8cccJ
=
4ccc
8.eeL
16aaJk
!!pagebreak:original
=
4gg
8.ddL
16eeJk
=
[2cc
=
4cc]
8.eeL
16ffJk
=||
[2gg
=
8ggL]
16ffL
16ggJJ
8aaL
16ggL
16ffJJ
=
2gg
=
4ee
8.ggL
16cccJk
=
4bb
[4ff
=
8ffL]
16ffL
16ggJJ
8aaL
16ggL
16ffJJ
=
2gg
=
4ee
8.eeL
16ffJk
=
[2gg
!!linebreak:original
=
8ggL]
16ffL
16ggJJ
8aaL
16ggL
16ffJJ
=
2gg
=
4ee
8.ggL
16cccJk
=
4bb
[4ff
=
8ffL]
16ffL
16ggJJ
8aaL
16ggL
16ffJJ
=
[2ee
=
4ee]
8.eeL
16ffJk
=||
[2gg
=
8ggL]
16ffL
16ggJJ
8aaL
16ggL
16ffJJ
=
2gg
=
4ee
8.ggL
16cccJk
!!linebreak:original
=
4bb
[4ff
=
8ffL]
16ffL
16ggJJ
8aaL
16ggL
16ffJJ
=
2gg
=
4ee
8.eeL
16ffJk
=
[2gg
!!linebreak:original
=
8ggL]
16ffL
16ggJJ
8aaL
16ggL
16ffJJ
=
2gg
=
4ee
8.ggL
16cccJk
=
4bb
[4ff
=
8ffL]
16ffL
16ggJJ
8aaL
16ggL
16ffJJ
=
[2ee
=
8eeL]
8ggJ
8aaL
8bbJ
=||
4ccc
4ee
=
4aa
8.ggL
16ffJk
=
[2gg
!!linebreak:original
=
8gg]
24eeLL
24ff
24eeJJ
8ddL
8ccJ
=
4gg
4ee
=
4aa
8.ggL
16eeJk
=
[2ff
=
8ffL]
8aaJ
8bbL
8cccJ
=
4ddd
4ccc
=
4bb
4aa
=
[2ccc
=
8cccL]
8bbJ
8aaL
8ggJ
=
4bb
8.aaL
16eeJk
=
4gg
8.ffL
16ddJk
=
[2cc
!!linebreak:original
=
8ccL]
8ggJ
8aaL
8bbJ
=||
4ccc
4ee
=
4aa
8.ggL
16ffJk
=
[2gg
!!linebreak:original
=
8gg]
24eeLL
24ff
24eeJJ
8ddL
8ccJ
=
4gg
4ee
=
4aa
8.ggL
16eeJk
=
[2ff
=
8ffL]
8aaJ
8bbL
8cccJ
=
4ddd
4ccc
=
4bb
4aa
=
[2ccc
=
8cccL]
8bbJ
8aaL
8ggJ
=
4bb
8.aaL
16eeJk
!!pagebreak:original
=
4gg
8.ffL
16ddJk
=||
[2cc
=
8cc]
4r
8gg
=||
[2cc
=
8ccL]
16ggL
16aaJJ
16ggLL
16ff
16ee
16ddJJ
=
8cc
8r
4r
==
*-
!!!system-decoration: s1,s2
